flaticon/casino-gambling/poker-49.svg

<svg xmlns="http://www.w3.org/2000/svg" width="32" height="32" viewBox="0 0 24 24">
    <path d="M 19.601562 0 L 4.398438 0 C 3.71875 0 3.199219 0.519531 3.199219 1.199219 L 3.199219 22.800781 C 3.199219 23.480469 3.71875 24 4.398438 24 L 19.601562 24 C 20.28125 24 20.800781 23.480469 20.800781 22.800781 L 20.800781 1.199219 C 20.800781 0.519531 20.28125 0 19.601562 0 Z M 20 22.800781 C 20 23.039062 19.839844 23.199219 19.601562 23.199219 L 4.398438 23.199219 C 4.160156 23.199219 4 23.039062 4 22.800781 L 4 1.199219 C 4 0.960938 4.160156 0.800781 4.398438 0.800781 L 19.601562 0.800781 C 19.839844 0.800781 20 0.960938 20 1.199219 Z M 20 22.800781"/>
    <path d="M18.800781 1.601562L9.601562 1.601562C9.359375 1.601562 9.199219 1.761719 9.199219 2 9.199219 2.238281 9.359375 2.398438 9.601562 2.398438L18.398438 2.398438 18.398438 15.601562C18.398438 15.839844 18.558594 16 18.800781 16 19.039062 16 19.199219 15.839844 19.199219 15.601562L19.199219 2C19.199219 1.761719 19.039062 1.601562 18.800781 1.601562zM14.398438 21.601562L5.601562 21.601562 5.601562 8.398438C5.601562 8.160156 5.441406 8 5.199219 8 4.960938 8 4.800781 8.160156 4.800781 8.398438L4.800781 22C4.800781 22.238281 4.960938 22.398438 5.199219 22.398438L14.398438 22.398438C14.640625 22.398438 14.800781 22.238281 14.800781 22 14.800781 21.761719 14.640625 21.601562 14.398438 21.601562zM14.398438 21.601562"/>
    <path d="M14.878906 8.441406C14.679688 7.238281 13.761719 6.28125 12.558594 6.039062 11.679688 5.839844 10.761719 6.078125 10.078125 6.640625 9.398438 7.199219 9 8.039062 9 8.921875 9 9.320312 9.078125 9.71875 9.238281 10.078125 8.761719 10.121094 8.28125 10.28125 7.839844 10.558594 6.960938 11.121094 6.398438 11.960938 6.359375 12.878906 6.320312 13.679688 6.601562 14.441406 7.160156 15.039062 7.71875 15.640625 8.558594 16 9.398438 16 9.71875 16 10 15.960938 10.28125 15.878906 10.238281 16.121094 10.160156 16.320312 10.039062 16.519531L9.761719 17.121094C9.679688 17.320312 9.679688 17.558594 9.800781 17.71875 9.921875 17.878906 10.121094 18 10.320312 18L13.679688 18C13.878906 18 14.078125 17.878906 14.160156 17.71875 14.28125 17.519531 14.28125 17.320312 14.199219 17.121094L13.921875 16.519531C13.800781 16.320312 13.71875 16.121094 13.679688 15.878906 13.960938 16 14.238281 16.039062 14.558594 16.039062 15.398438 16.039062 16.199219 15.71875 16.800781 15.078125 17.359375 14.480469 17.640625 13.71875 17.601562 12.921875 17.519531 12 17 11.160156 16.121094 10.601562 15.640625 10.320312 15.160156 10.160156 14.679688 10.121094 14.921875 9.601562 14.960938 9 14.878906 8.441406zM15.761719 11.238281C16.398438 11.679688 16.800781 12.28125 16.839844 12.921875 16.839844 13.480469 16.640625 14.039062 16.238281 14.480469 15.800781 14.921875 15.199219 15.199219 14.558594 15.199219 14.160156 15.199219 13.761719 15.078125 13.441406 14.839844L12.800781 14.398438 12.800781 15.199219C12.800781 15.761719 12.921875 16.359375 13.199219 16.878906L13.359375 17.199219 10.640625 17.199219 10.800781 16.878906C11.078125 16.359375 11.199219 15.800781 11.199219 15.199219L11.199219 14.398438 10.601562 14.839844C10.28125 15.078125 9.878906 15.199219 9.480469 15.199219 8.839844 15.199219 8.238281 14.960938 7.800781 14.480469 7.398438 14.039062 7.199219 13.480469 7.238281 12.921875 7.28125 12.28125 7.71875 11.640625 8.359375 11.238281 8.878906 10.921875 9.441406 10.800781 10 10.960938L11.199219 11.238281 10.398438 10.320312C10.078125 9.921875 9.878906 9.441406 9.878906 8.921875 9.878906 8.238281 10.199219 7.640625 10.679688 7.238281 11.199219 6.839844 11.839844 6.679688 12.480469 6.800781 13.320312 7 14 7.679688 14.160156 8.558594 14.28125 9.199219 14.078125 9.839844 13.679688 10.320312L12.878906 11.238281 14.078125 10.960938C14.679688 10.800781 15.238281 10.878906 15.761719 11.238281zM5.039062 5.960938C5.238281 6.039062 5.480469 5.960938 5.558594 5.761719L5.992188 4.800781C5.996094 4.800781 5.996094 4.800781 6 4.800781L7.601562 4.800781C7.601562 4.800781 7.605469 4.800781 7.609375 4.800781L8.039062 5.761719C8.121094 5.921875 8.238281 6 8.398438 6 8.441406 6 8.519531 6 8.558594 5.960938 8.761719 5.878906 8.839844 5.640625 8.761719 5.441406L7.160156 1.839844C7.121094 1.679688 6.960938 1.601562 6.800781 1.601562 6.640625 1.601562 6.480469 1.679688 6.441406 1.839844L4.839844 5.441406C4.761719 5.640625 4.839844 5.878906 5.039062 5.960938zM6.800781 3L7.25 4 6.351562 4zM18.960938 18.039062C18.761719 17.960938 18.519531 18.039062 18.441406 18.238281L18.007812 19.199219C18.003906 19.199219 18.003906 19.199219 18 19.199219L16.398438 19.199219C16.398438 19.199219 16.394531 19.199219 16.390625 19.199219L15.960938 18.238281C15.878906 18.039062 15.640625 17.960938 15.441406 18.039062 15.238281 18.121094 15.160156 18.359375 15.238281 18.558594L16.839844 22.160156C16.878906 22.320312 17.039062 22.398438 17.199219 22.398438 17.359375 22.398438 17.519531 22.320312 17.558594 22.160156L19.160156 18.558594C19.238281 18.359375 19.160156 18.121094 18.960938 18.039062zM17.199219 21L16.75 20 17.648438 20zM17.199219 21"/>
</svg>

<svg xmlns="http://www.w3.org/2000/svg" width="32" height="32" viewBox="0 0 24 24">
    <path d="M19.602 0H4.398C3.718 0 3.2.52 3.2 1.2v21.6c0 .68.52 1.2 1.2 1.2h15.203c.68 0 1.199-.52 1.199-1.2V1.2c0-.68-.52-1.2-1.2-1.2zM20 22.8c0 .24-.16.4-.398.4H4.398c-.238 0-.398-.16-.398-.4V1.2c0-.24.16-.4.398-.4h15.204c.238 0 .398.16.398.4zm0 0"/>
    <path d="M18.8 1.602H9.603c-.243 0-.403.16-.403.398 0 .238.16.398.403.398h8.796v13.204c0 .238.16.398.403.398.238 0 .398-.16.398-.398V2c0-.238-.16-.398-.398-.398zm0 0M14.398 21.602H5.602V8.398c0-.238-.16-.398-.403-.398-.238 0-.398.16-.398.398V22c0 .238.16.398.398.398h9.2c.242 0 .402-.16.402-.398 0-.238-.16-.398-.403-.398zm0 0"/>
    <path d="M14.879 8.441a2.936 2.936 0 0 0-2.32-2.402 2.91 2.91 0 0 0-2.48.602A2.96 2.96 0 0 0 9 8.92c0 .4.078.798.238 1.157a3.17 3.17 0 0 0-1.398.48c-.88.563-1.442 1.403-1.48 2.32-.04.802.242 1.563.8 2.161.559.602 1.399.961 2.238.961.32 0 .602-.04.883-.121a1.787 1.787 0 0 1-.242.64l-.277.602c-.082.2-.082.438.039.598.12.16.32.281.52.281h3.359a.56.56 0 0 0 .48-.281.628.628 0 0 0 .04-.598l-.278-.601a1.718 1.718 0 0 1-.242-.641c.28.121.558.16.879.16.84 0 1.64-.32 2.242-.96.558-.599.84-1.36.8-2.157-.081-.922-.601-1.762-1.48-2.32-.48-.282-.96-.442-1.441-.48.242-.52.28-1.122.199-1.68zm.883 2.797c.636.442 1.039 1.043 1.078 1.684 0 .558-.2 1.117-.602 1.558a2.382 2.382 0 0 1-1.68.72c-.398 0-.796-.122-1.117-.36l-.64-.442v.801c0 .563.12 1.16.398 1.68l.16.32h-2.718l.16-.32c.277-.52.398-1.078.398-1.68v-.8l-.597.44a1.89 1.89 0 0 1-1.122.36c-.64 0-1.242-.238-1.68-.719-.402-.44-.6-1-.562-1.558.043-.64.48-1.281 1.121-1.684.52-.316 1.082-.437 1.641-.277l1.2.277-.802-.918c-.32-.398-.52-.879-.52-1.398 0-.684.321-1.281.802-1.684a2.246 2.246 0 0 1 1.8-.437c.84.199 1.52.879 1.68 1.758.121.64-.082 1.28-.48 1.761l-.801.918 1.2-.277c.6-.16 1.16-.082 1.683.277zm0 0M5.04 5.96c.198.08.44 0 .519-.198l.433-.961H7.61l.43.96c.082.16.2.239.36.239.042 0 .12 0 .16-.04.203-.081.28-.32.203-.519L7.16 1.84c-.039-.16-.2-.238-.36-.238-.16 0-.32.078-.359.238L4.84 5.44c-.078.2 0 .438.2.52zM6.8 3l.45 1h-.898zm0 0M18.96 18.04c-.198-.08-.44 0-.519.198l-.433.961h-1.61-.007l-.43-.96c-.082-.2-.32-.278-.52-.2-.203.082-.28.32-.203.52l1.602 3.601c.039.16.2.238.36.238.16 0 .32-.078.359-.238l1.601-3.601c.078-.2 0-.438-.2-.52zM17.2 21l-.45-1h.898zm0 0"/>
</svg>
